svg/expired.svg

<?xml version="1.0" encoding="UTF-8"?>
<svg xmlns="http://www.w3.org/2000/svg" xmlns:xlink="http://www.w3.org/1999/xlink" width="32" height="32" viewBox="0 0 32 32">
<path fill-rule="nonzero" fill="rgb(0%, 0%, 0%)" fill-opacity="1" d="M 9.601562 0 C 4.324219 0 0 4.324219 0 9.601562 C 0 14.878906 4.324219 19.199219 9.601562 19.199219 C 10.109375 19.199219 10.640625 19.125 11.101562 19.058594 C 11.34375 19.046875 11.558594 18.898438 11.652344 18.675781 C 11.75 18.457031 11.714844 18.199219 11.558594 18.011719 C 11.402344 17.828125 11.15625 17.746094 10.921875 17.800781 C 10.480469 17.863281 9.988281 17.921875 9.601562 17.921875 C 5.019531 17.921875 1.28125 14.179688 1.28125 9.601562 C 1.28125 5.019531 5.019531 1.28125 9.601562 1.28125 C 13.347656 1.28125 16.550781 3.78125 17.558594 7.21875 C 17.605469 7.382812 17.71875 7.523438 17.867188 7.605469 C 18.015625 7.6875 18.195312 7.707031 18.359375 7.660156 C 18.703125 7.558594 18.898438 7.203125 18.800781 6.859375 C 17.632812 2.878906 13.917969 0 9.601562 0 M 9.535156 3.179688 C 9.511719 3.183594 9.484375 3.191406 9.460938 3.199219 C 9.160156 3.265625 8.953125 3.535156 8.960938 3.839844 L 8.960938 8.640625 C 8.648438 8.847656 8.4375 9.203125 8.4375 9.601562 C 8.4375 9.667969 8.46875 9.738281 8.480469 9.800781 L 6.140625 12.160156 C 5.941406 12.3125 5.851562 12.5625 5.90625 12.804688 C 5.960938 13.046875 6.148438 13.238281 6.390625 13.292969 C 6.632812 13.34375 6.886719 13.253906 7.035156 13.058594 L 9.398438 10.71875 C 9.460938 10.730469 9.527344 10.761719 9.601562 10.761719 C 10.238281 10.757812 10.753906 10.242188 10.761719 9.601562 C 10.761719 9.203125 10.546875 8.847656 10.234375 8.640625 L 10.234375 3.839844 C 10.242188 3.65625 10.171875 3.476562 10.035156 3.351562 C 9.902344 3.222656 9.71875 3.160156 9.535156 3.179688 M 18.878906 9.121094 C 18.65625 9.121094 18.433594 9.203125 18.316406 9.398438 L 5.839844 31.039062 C 5.726562 31.238281 5.726562 31.480469 5.839844 31.679688 C 5.953125 31.878906 6.171875 32 6.398438 32 L 31.378906 32 C 31.628906 32 31.855469 31.855469 31.960938 31.625 C 32.0625 31.398438 32.023438 31.128906 31.859375 30.941406 L 19.441406 9.398438 C 19.324219 9.203125 19.101562 9.121094 18.878906 9.121094 M 18.238281 17.28125 L 19.460938 17.28125 C 19.585938 17.28125 19.640625 17.351562 19.640625 17.480469 L 19.640625 24.761719 C 19.640625 24.886719 19.585938 24.960938 19.460938 24.960938 L 18.238281 24.960938 C 18.113281 24.960938 18.039062 24.886719 18.039062 24.761719 L 18.039062 17.480469 C 18.039062 17.351562 18.113281 17.28125 18.238281 17.28125 M 18.238281 26.441406 L 19.519531 26.441406 C 19.648438 26.441406 19.71875 26.492188 19.71875 26.621094 L 19.71875 27.960938 C 19.71875 28.085938 19.648438 28.160156 19.519531 28.160156 L 18.238281 28.160156 C 18.113281 28.160156 18.039062 28.085938 18.039062 27.960938 L 18.039062 26.621094 C 18.039062 26.492188 18.113281 26.441406 18.238281 26.441406 M 18.238281 26.441406 "/>
</svg>

<svg role="img" viewBox="0 0 32 32" height="32" width="32" xmlns="http://www.w3.org/2000/svg"><path d="M9.602 0C4.324 0 0 4.324 0 9.602c0 5.277 4.324 9.597 9.602 9.597.507 0 1.039-.074 1.5-.14a.638.638 0 1 0-.18-1.258c-.442.062-.934.12-1.32.12-4.582 0-8.32-3.741-8.32-8.32 0-4.581 3.738-8.32 8.32-8.32 3.746 0 6.949 2.5 7.957 5.938a.645.645 0 0 0 .8.441.648.648 0 0 0 .442-.8C17.633 2.878 13.918 0 9.6 0m-.063 3.18a.457.457 0 0 0-.078.02.642.642 0 0 0-.5.64v4.8c-.309.208-.52.563-.52.962 0 .066.028.136.04.199l-2.34 2.36a.64.64 0 1 0 .898.898l2.36-2.34c.062.011.132.043.203.043a1.17 1.17 0 0 0 1.16-1.16c0-.399-.215-.754-.524-.961V3.84a.637.637 0 0 0-.699-.66m9.34 5.941c-.219 0-.445.082-.559.277L5.84 31.04a.646.646 0 0 0 0 .64c.113.2.332.321.558.321H31.38a.639.639 0 0 0 .48-1.059L19.441 9.398c-.117-.195-.34-.277-.562-.277m-.64 8.16h1.222c.125 0 .18.07.18.2v7.28c0 .126-.055.2-.18.2h-1.223c-.125 0-.199-.074-.199-.2v-7.28c0-.13.074-.2.2-.2m0 9.16h1.28c.13 0 .2.051.2.18v1.34c0 .125-.07.2-.2.2h-1.28c-.126 0-.2-.075-.2-.2v-1.34c0-.129.074-.18.2-.18m0 0"/></svg>
